X:1
T:Vitali Chaconne
T:Chaconne
T:Tomaso Vitali Arrangement of Léopold Charlier 
C:Tomaso Vitali Arrangement of Léopold Charlier
%%score ( 1 2 3 ) { ( 4 8 9 ) | ( 5 6 7 10 ) }
L:1/8
Q:1/4=100
M:3/2
K:Bb
V:1 treble nm="Violin"
V:2 treble 
V:3 treble 
V:4 treble nm="Piano"
V:8 treble 
V:9 treble 
V:5 bass 
V:6 bass 
V:7 bass 
V:10 bass 
V:1
"^Molto moderato" z12 | z12 | z12 | z12 | z12 | z12 | z12 | z12 |!f! ([G,DBg]2 ^f2) !1!g2 a2 b4 | %9
 a4 (!tenuto!!1!=f4 !tenuto!d4) | g4 (g2 ^f2) !1!g2 a2 | b4 (a6 !2!g2) | g4 (g2 ^f2) !1!g2 a2 | %13
 =b4 (!1!b2 c'2) d'2 b2 | c'4 !3!_b2 _a2 g4- | g2 !3!B2!>(! (=A6 !2!G2) | %16
 G4!>)!!p! !tenuto!!1!B4 !tenuto!!2!e4- | e3 (!2!^c d3) (^g a4-) | a3 (^f g3)!<(! (!1!=b c'4-) | %19
 c'(c'e')!<)!.c'!>(! (b6 !2!a2)!>)! |!mf!"^1" (!3!b2!>(! !3!a2 g2 f2) (e4!>)! | %21
!mf! !tenuto!!0!a)!>(!(!3!fg=e fde!2!^c) (d4!>)! | %22
!mf! (3!4!g)!>(!(_eg (3fdf (3!4!ece (3d=Bd) c4-!>)! | %23
 c2!p!!<(! (D2 ^F2 A2)!<)!!>(! (c!3!c').b.a!>)! | %24
 b2!<(! (v!0!D2 G2 B2)!<)!!>(! (!3!d!3!b).a.g!>)! | %25
 a2!<(! (v!0!D2 =F2 A2)!<)!!>(! (!3!d!3!a).g.f!>)! | %26
 g2!<(! (v!1!E2 G2 c2)!<)!!>(! (!4!e!4!b).a.g!>)! | %27
 ^f2!<(! (v!0!D2 ^F2 A2)!<)!!>(! (c!3!c').b.a!>)! |"^2" (b"_un poco animato"d)!p!(bd c'dbd c'dbd | %29
 ad)(!2!ad bdad bdad | gd)(gd acgc acgc | !1!^fc)(fc fdfc fdfc) | %32
!p! (3(u!2!bdb) (3(bdb (3c'dc' (3bdb (3c'dc' (3bdb | (3ada) (3(!2!ada (3bdb (3ada (3bdb (3ada | %34
 (3gdg) (3(gdg (3aca (3gcg (3aca (3gcg | %35
!<(! (3!1!^fcf) (3(fcf) (3(fdf)!<)!!>(! (3(fef) (3(fdf) (3(fcf)!>)! | %36
"^3""_espressivo (agitato)"{Bc} (B2 A2) B2 !1!c2 _d4 | c4 (!3!_A4 !2!F4) | %38
 B4!<(! (B2 =A2) B2 !1!c2!<)! |!>(! _d4 (!2!c6 B2)!>)! | B4"_cresc." (B2 A2) B2 !1!c2 | %41
 =d4 (!1!d2 e2) f2 d2 | e4 !3!_d2 _c2 B4- |"_poco rit." B2!>(! !3!f2 (!2!A7 !1!B)!>)! | %44
!pp!"^a tempo" B2"_dolce""^II" (_g2 _a2 b2) g4- | g2 (f2 _g2 _a2) f4- | %46
!<(! f(!2!e!1!f_g) (g2 !1!_a2) (!2!=a2 !3!b2)!<)! |!>(! (b2 !3!_d2) (c6 B2)!>)! | %48
"^4"!p! (6:4:5(B2"_leggiero" f'e'_d'e') (6:4:6(d'e'f'e'd'e' (6:4:6d'e'f'e'd'e' | %49
 (6:4:6c')(_d'e'd'c'd' (6:4:6c'd'e'd'c'd' (6:4:6c'd'e'd'c'd' | %50
 (6:4:6!2!b)(c'_d'c'bc' (6:4:6bc'd'c'bc' (6:4:6bc'd'c'bc' | %51
 (6:4:6=a)(bc'bab (6:4:6abc'bab (6:4:6abc'bab) | .ub2!p! (!1!B2 _d2 !1!f2 _g2 b2) | %53
 !tenuto!!2!F2 (_A2 c2 !1!e2 f2 _a2) | !tenuto!!1!E2 (_G2 B2 !1!_d2 e2 _g2) | %55
 !tenuto!_d4 (T!2!c8{B!1!c)} |"^5" _d2 z2!p! (!trill(!Tud2 !1!f2"_cresc." !2!b2 !trill)!_d'2) | %57
 !tenuto!!3!=d'2 z2 (!trill(!Tu!2!=d2 !1!f2 b2 !trill)!d'2) | %58
 !tenuto!e'2 z2 ((!trill(!Tu[ee']4 [=e=e']4)) | %59
!f! (!trill)![ff']2"_poco rit." !4!_d'/c'/).d'/.b/!>(! (T!2!g7 f)!>)! | %60
"^a t." f4!p!"_sospirando"!>(! ((_d'2 _a)!>)! z!>(! (d'2 a))!>)! z | %61
!>(! (!1!g2 !4!_d'2 c')!>)! z!<(! (b2 !1!g2 c'2)!<)! | %62
!>(! (!1!f2 !3!c'2 b)!>)! z!<(! (!3!_a2 f2 !2!b2!<)! | %63
 c')(b !3!_a).g/.f/!>(! (!032!=e6{/=d} e!2!f)!>)! | %64
"^6""^più largo"!f! f2"_energico"!<(! !>!!1!f4 !>!f4 !tenuto!f2!<)! | %65
!>(! (f>_g) !>!f4!>)!!<(! !>!f4 !tenuto!f2!<)! |!>(!{/[DA]} (^f>g) !>!f4!>)! !>!f4!<(! !tenuto!f2 | %67
 g2 (!2!ba) (!2!a2 g4) !tenuto!!1!^f2!<)! |!f! g2 !>![Bg]4 !>![Bg]4 !tenuto![Bg]2 | %69
 (!>!g>_a) !>![ca]4 !>![ca]4 !tenuto![ca]2 | (!>!_a>g) !>![=Bg]4 !>![cg]4 !tenuto![cg]2 | %71
 g6 ([Ag]4 !2![A^f]2) | (!>!^f2 g4)"_con anima"!<(! (!3!B4 !tenuto!!2!B2)!<)! | %73
!>(! (B2 !2!A2)!>)! z2!<(! (!4!!0!A4 [Dc]2)!<)! |!>(! (c2 =B4)!>)! (c2 !2!eg!4!e).c/.A/ | %75
 (_B3 A)!>(! (T!2!A6 G2)!>)! | %76
"^7""^a tempo"!p! (6:4:6(Gdb)(.b.d.G) (6:4:6(Gdd')(.b.d.G) (6:4:6(Gdd')(.b.d.G) | %77
 (6:4:6(!2!Fda)(.f.d.F) (6:4:6(Fda)(.f.d.F) (6:4:6(Fda)(.f.d.F) | %78
 (6:4:6(Edg)(.g.c.E) (6:4:6(Eeg)(.g.c.E) (6:4:6(Eeg)(.g.c.E) | %79
 (6:4:6(Dc^f)(.f.c.D) (6:4:6(Dca)(.f.c.D) (6:4:6(Dca)(.f.c.D) | %80
!f! (3(!1!Gd).b (3(Gd).b (3(Gd).d' (3(Gd).b (3(Gd).d' (3(Gd).b | %81
 (3(!1!Fd).a (3(Fd).a (3(Fd).d' (3(Fd).a (3(Fd).d' (3(Fd).a | %82
 (3(!1!Ed).g"_cresc." (3(E"_cresc."d).g (3(Ee).g (3(Ec).g (3(Ee).g (3(Ec).g | %83
 (3(Dc).^f (3(Dc).f (3(Dc).a (3(Dc).f (3(Dc).a (3(Dc).f | %84
!ff!"^8" (3(!>!g"_più largo sempre"BD (3G,).[DB].[Ba] .[G,DBg] z !>!g4 .g2 | %85
 (3(!>!g=BD (3G,).[DB].[Ba] .[G,DBg] z !>!g4 .g2 | (3(^gd=E (3=B,).[E=B].[Ba] .[EBg] z !>!g4 .g2 | %87
"_allargando" !tenuto!a!tenuto!!3!a' (g'/f'/).!0!!1!=e'/.!4!d'/ (c'd'/c'/=b).a (T!2!^g3 !2!a) | %88
!ff!"^Tempo I."{/A} (a2 ^g2) !tenuto!!1!a2 !tenuto!=b2 c'4 | =b4 (!tenuto!!2!g4 !tenuto!!0!=e4) | %90
 !1!a4 (!2!a2 ^g2) !tenuto!!1!a2 !tenuto!=b2 | c'4 (=b6 a2) | %92
 !2!a4 (a2 ^g2) !tenuto!!1!a2 !tenuto!=b2 | %93
 !tenuto!^c'2 !tenuto!=e'2 !tenuto!c'2 !tenuto!a2 !tenuto!!0!=e2 !tenuto!!1!a2 | %94
 d'4 !tenuto!c'2 !tenuto!=b2 (c'a_b!1!^g | %95
 !1!a2)"_poco rit." !tenuto!!3!c2!>(! (!2!=B6 !2!A2)!>)! | %96
"^a tempo""^9"!pp! A!0!=e.c'.!2!e .=e'.e.c'.e .a.e(c'e) | %97
 (!4!g!0!=e).!2!=b.!2!e .=e'.e.b.e .g.e(be) | (fd).a.d .d'.d.a.d .f.d(ad) | %99
 (!0!=e=B).^g.B .=b.B.g.B .e.B(gB) | %100
!p!!<(!{/A} (3!tenuto!a!tenuto!=e!tenuto!!1!a (3!tenuto!c'!tenuto!!2!e!tenuto!c'!<)!!>(! (3!tenuto!=e'!tenuto!e!tenuto!e' (3.c'.e.c' (3.a.e.a!>)! (3.c'.e.c' | %101
!<(! (3!tenuto!g!tenuto!=e!tenuto!g (3!tenuto!=b!tenuto!e!tenuto!b (3!tenuto!=e'!tenuto!e!tenuto!e'!<)!!>(! (3.b.e.b (3.g.e.g (3.b.e.b!>)! | %102
!<(! (3!tenuto!f!tenuto!d!tenuto!f (3!tenuto!a!tenuto!d!tenuto!a (3!tenuto!d'!tenuto!d!tenuto!d'!<)!!>(! (3.a.d.a (3.f.d.f (3.a.d.a!>)! | %103
!<(! (3!tenuto!!0!=e!tenuto!=B!tenuto!e (3!tenuto!^g!tenuto!B!tenuto!g (3!tenuto!=b!tenuto!B!tenuto!b!<)!!>(! (3.g.B.g (3.e.B.e (3.g.B.g!>)! | %104
"^10"!p! (!0!A!1!a)(.a.c') !tenuto!c'{/f}(=e/^d/ec') !tenuto!c'{/f}(e/d/ec') | %105
 .=b{/f}(=e/^d/eb) .b{/f}(e/d/eb) .b{/f}(e/d/eb) | .a{/=e}(d/^c/da) .a{/e}(d/c/da) .a{/e}(d/c/da) | %107
 .^g{/=e}(d/^c/dg) .=b{/e}(d/c/db) .d'{/!3!f}(=e/^d/e=d') | %108
!p! .=c'(3(.vf/.=e/.^d/)(.e.c') .c'(3(.vf/.e/.d/)(.e.c') .c'(3(.vf/.e/.d/)(.e.c') | %109
 .=b(3(.f/.=e/.^d/)(.e.b) .b(3(.f/.e/.d/)(.e.b) .b(3(.f/.e/.d/)(.e.b) | %110
 .a(3(.!3!=e/.=d/.^c/)(.d.a) .a(3(.e/.d/.c/)(.d.a) .a(3(.e/.d/.c/)(.d.a) | %111
 .^g(3(.=e/.d/.^c/)(.d.g) .=b(3(.e/.d/.c/)(.d.b) .d'(3(.!3!f/.e/.^d/)(.e.=d') | %112
"^11"!>(! (=c'4 a4)!>)!!pp! [=ec']4- | [ec']4 ([d-c']4 ([d=b]4 | [_d_b]4)) ([c-b]4 [c-a]4 | %115
 [c_a]4) ([B-a]4 [Bg]4- | [Bg]4) ([A-g]4 !2![A^f]4) |"_express." [Bg]6!<(! ([Bg]4 .[Bg]2)!<)! | %118
!>(!"_cresc."{!0!Ac} (g4 ^f2)!>)!!<(! ([cf]4 [ca]2)!<)! | %119
!>(!{Bd} (a4 g2)!>)!!<(! ([dg]4 !2![db]2)!<)! | %120
 !tenuto![ce]2!>(! (!>!vb4"_radolcendo" !2!a2)!>)! (!1!_a2 bc') | %121
"_cédez" (c'2!>(! !1!f4) (!3!b4 !3!_a2)!>)! |"^12"!pp! g6 (g2 !2!=b2 c'2) | (c'3 _b) _a6 (f'!1!a | %124
 c'b)!tenuto!!3!b!tenuto!_a (g4 (3(!2!e'2){f'e')} !tenuto!d'2 !tenuto!e'2 | %125
"_delicatamente" ((!1!=e'2 f'2-) f'!2!g')!tenuto!b'!tenuto!_a' (9:8:9(!3!g'/f'/_e'/d'/c'/b/_a/!1!g/a/) | %126
"^a tempo, con moto"!pp! (gg') (3(.e'.b.g) (3(be'g') (3(.e'.b.g) (3(be'g') (3(.e'.b.g) | %127
 (!1!ff') (3(.d'.b.f) (3(bd'f') (3(.d'.b.f) (3(bd'f') (3(.d'.b.f) | %128
 (!1!ee') (3(.b.g.e) (3(gbe') (3(.b.g.e) (3(gbe') (3(.b.e.f) | %129
 (3(gbe') (3(.b.g.e) (3(gbe') (3(.b.g.e) (3(fbe') (3(b!1!d'f') | %130
"^13""_poco a poco cresc." (e'/f'/g'/f'/ e'/b/a/b/) (e'/f'/g'/f'/ e'/b/a/b/) (e'/f'/g'/f'/ e'/b/a/b/) | %131
 (d'/e'/f'/e'/ d'/b/a/b/) (d'/e'/f'/e'/ d'/b/a/b/) (d'/e'/f'/e'/ d'/b/a/b/) | %132
 (!1!c'/d'/e'/d'/ c'/g/f/g/) (c'/d'/e'/d'/ c'/g/f/g/) (c'/d'/e'/d'/ c'/g/f/g/) | %133
"_e poco rit." (!1!b/c'/d'/c'/ b/f/e/f/) (b/c'/d'/c'/ b/f/e/f/) (b/c'/d'/c'/ b/f/e/f/) | %134
"^a tempo"!p!!>(! ((_g2"_express." e)!>)! z!>(! (_a2 e))!>)! z!<(! (be_c'e)!<)! | %135
!>(! ((!3!f2 _d)!>)! z!>(! (_g2 d))!>)! z!<(! (_adbd)!<)! | %136
!>(! ((!3!e2 _c)!>)! z!>(! (f2 c))!>)! z!<(! (_gc_ac)!<)! | %137
!<(! ((!3!=d2 B) z (f2 B))!<)! z!>(! (!4!_c'!1!B.!4!b._a)!>)! | %138
"^14"!pp! (_ge)(.!3!g.e) (_ae)(.a.e) (be)(._c'.e) | (!3!f!1!_d)(.f.d) (_gd)(.g.d) (_ad)(.b.d) | %140
 (!3!e_c)(.e.c) (fc)(.f.c) (_gc)(._a.c) | %141
"_allargando" (!3!=dB)(.d.B)!<(! (fB)(.f.B) (_gB)(._a.B)!<)! | %142
!ff! ([EB=g]2 ^f2) [G,DBg]2 !2!=a2 b4 | (ab).a.^c (!tenuto!d4 !tenuto!!3!d4) | %144
 g4 (g2 ^f2) !tenuto!!1!g2 !tenuto!a2 | b4 (a6 !2!g2) | g4 (g2 ^f2) !tenuto!!1!g2 !tenuto!a2 | %147
 =b4 (!1!b2 c'2) !tenuto!d'2 !tenuto!b2 | %148
 !tenuto!c'2 !tenuto!d'2 !tenuto!c'2 !tenuto!!3!b2 !tenuto!_a2 !tenuto!!2!g2 | %149
 (^f=e _e).d/.c/ (TB6 =A2) |"^15"!f!({!1!Gd} b.a) (!2!g3 .=f) (e3 .d) ((^c2 | %151
!f! !0!a).!4!g) (f3 .e) d3 .!2!c ((=B2 | !4!g).f) (e3 .d)"_espress." c3 .B (_A2- | %153
 A.!2!G)!>(! (^F4 !1!G2) (B2 T=A>G) | %154
 !tenuto!G!>)!"_rubato"!p! (!>!v!4!b2 !4!a g=f!1!e!1!d) (T!2!^c4{=Bc} | %155
 d) (!>!!4!_a2 !4!g fed!2!c) (T=B4{=AB} | c) (!>!!4!g2 f ed!2!cB) (_AG"^III" !2!^c2 | %157
 d2 !3!B2) (!trill(!T=A7 G) | %158
"^16" G2!f! (vG,/B,/A,/G,/ !0!!2!D!1![Bd]).!0!!4![Ac].!1![GB] ([bb']3 [aa']) | %159
 .[aa'] z (!0!D/F/=E/D/ !0!!2!A!1![fa]).!0!!4![=eg].!1![df] ([aa']3 [gg']) | %160
 [gg'] z (!1!_E/G/F/E/ !4!c[ce]).[Bd].!0!!4![Ac] ([gg']3 [^f^f']) | %161
 [^f^f'] z (!0!D/^F/=E/D/ .!0!d!<(! .!1![fa]).[gb].[fa]!<)!!>(! (!2![bd']3 !2![ac'])!>)! | %162
 .[G,Dgb] z!p! .u!4!g(G B)(b!<(!d')(d !1!g)!8va(!"_cresc."(g'=b')!<)!.=b | %163
 !tenuto!!2!!4![d'd'']2!8va)! .u!4!g(G =B)(=b!<(!d')(d !1!f)([ff'][_a_a'][gg'])!<)! | %164
 !tenuto![gg']2 .!4!c(C E)(eg)(G B).b.!1!^c(!3!^c' | d').d.b.B .g.G.d.D{/B} (TA3 G) | %166
"^17"!p! (3((!3!GG,G) (3.uA(A,A) (3.uB(B,B) (3.uc(Cc) (3.=B(=B,B) (3.c(Cc)) | %167
 (3(.d(Dd) (3.e(Ee) (3.d(Dd) (3.e(Ee) (3.f(Ff) (3.d(Dd)) | %168
 (3(.e(Ee) (3.f(Ff) (3.e(Ee) (3.^f(^Ff) (3.g(Gg) (3.c(Cc)) | %169
!<(! (3(!3!^f!0!Df (3!2!cDc)!<)! (3(!0!a!0!Da (3!2!cDc)!>(! (3(BDB (3ADA)!>)! | %170
!p! (3(BcB (3!1!d).d.d (3(uc'd'c') (3.d.d.d (3(ubc'b) (3.d.d.d | %171
 (3(aba) (3.d.d.d (3(bc'b) (3.d.d.d (3(aba) (3.d.d.d | %172
 (3(!2!gag) (3.d.d.d (3(aba) (3.c.c.c (3(gag) (3.c.c.c | %173
 (3(^fgf) (3.c.c.c (3(fgf) (3.d.d.d (3(fgf (3c).c.c | %174
"^18""_poco a poco cresc." (BcB).!2![Gdb] (ede).[Geb] (ede).[Geb] | %175
 (e!2!de).[Fea] (dcd).[Fda] (dcd).[Fda] | (!3!dcd).[Edg] (c=Bc).[Ecg] (cBc).[Ecg] | %177
 (c=Bc).[Dc^f] (cBc).[Dca] (cBc).[Dcc'] |!f! [G,DBb]4 ([Bb]2 [Aa]2) [Bb]2 [cc']2 | %179
!<(! [_d_d']4 ([ee']4 [ff']4)!<)! | %180
!ff! ([_g_g']3 (6:4:6[ff']/4[_f_f']/4[ee']/4[__e__e']/4[_d_d']/4[cc']/4) [_c_c']3 (6:4:6([_e_e']/4[=d=d']/4[_d_d']/4[=c=c']/4[_c_c']/4[Bb]/4 [=A=a]7/2)"_allargando" (!4!=c'/8b/8a/8g/8 | %181
 !1!^f2)!>(! !tenuto!g2 (T!032!A7 G)!>)! | %182
"^a tempo""^19"!p! (3.G,.[Bd].[Bd] (3(ded) (3.G,.[Bd].[Bd]"_sempre cresc. e affrettando" (3(ded) (3.G,.[Bd].[Bd] (3(ded) | %183
 (3.G,.[=Bd].[Bd] (3(ded) (3.G,.[Bd].[Bd] (3(ded) (3.G,.[Bd].[Bd] (3(ded) | %184
 (3.G,.!1![ce].[ce] (3(efe) (3.G,.[ce].[ce] (3(efe) (3.G,.[ce].[ce] (3(efe) | %185
 (3.!0!D.[Bg].[Bg] (3(gag) (3.D.[Bg].[Bg] (3(gag) (3.D.[A^f].[Af] (3(fgf) | %186
!f! (3.[G,D].[Bg].[Bg] (3(gag) (3.[G,D].[Bg].[Bg] (3(gag) (3.[G,D].[Bg].[Bg] (3(gag) | %187
 (3.[G,D].[=Bg].[Bg] (3(g_ag) (3.[G,D].!2![d=b].[db] (3(bc'b) (3.[G,D].[dd'].[dd'] (3([dd'][ee'][dd']) | %188
 (3.[G,G].[ec'].[ec'] (3(c'd'c') (3.!1![G,E].[cg].[cg] (3(g=ag) (3.[G,E].[ca].[ca] (3(aba) | %189
 (3.!0!D.!2![db].[db] (3(bc'b) (3.D.!2![Bg].[Bg] (3(gag) (3.D.[A^f].[Af] (3(fgf) | %190
"^20"!f! ([G,D]/[Bg]/).[Bg]/.[Bg]/ ([Bg]/[G,D]/).[G,D]/.[G,D]/ ([G,D]/[Bg]/).[Bg]/.[Bg]/ ([Bg]/[G,D]/).[G,D]/.[G,D]/ ([G,D]/[Bg]/).[Bg]/.[Bg]/ ([Bg]/[G,D]/).[G,D]/.[G,D]/ | %191
 ([G,D]/[=Bg]/).[Bg]/.[Bg]/ ([Bg]/[G,D]/).[G,D]/.[G,D]/ (!1![G,G]/[d=b]/).[db]/.[db]/ ([db]/[G,G]/).[G,G]/.[G,G]/ ([G,G]/[dd']/).[dd']/.[dd']/ ([dd']/[G,G]/).[G,G]/.[G,G]/ | %192
 ([G,G]/[ec']/).[ec']/.[ec']/ ([ec']/[G,G]/).[G,G]/.[G,G]/"_allargando" (!1![G,c]/[ge']/).[ge']/.[ge']/ ([ge']/[G,c]/).[G,c]/.[G,c]/ ([G,c]/[gg']/).[gg']/.[gg']/ ([gg']/[G,c]/).[G,c]/.[G,c]/ | %193
 (!0!D/[gb']/).[gb']/.[gb']/ (D/!4![bg']/).[bg']/.[bg']/ (D/[ag']/).[ag']/.[ag']/ .[ag']/.[ag']/.[ag']/.[ag']/ (D/[a^f']/).[af']/.[af']/ .[af']/.[af']/.[af']/.[af']/ | %194
!ff!!8va(!{/[Gd]} ([gg']2 [^f^f']2) [gg']2 [aa']2 [bb']4 | [aa']4 ([=f=f']4 [dd']4) | %196
 [gg']4 ([gg']2 [^f^f']2) [gg']2 [aa']2 | [bb']4 ([aa']6 [gg']2) | %198
 [gg']4 (!1!!3![gg']2 [^f^f']2) [gg']2 [aa']2 | [=b=b']4 ([bb']2 [c'c'']2) [d'd'']2 [bb']2 | %200
 [c'c'']4 [_b_b']2 [_a_a']2 [gg']4!8va)! | %201
{/!fermata![Dg]} !fermata!!1!!3![gg'-]2 (g'/!3!d'/).^c'/.d'/ (e'/d'/).!1!a/.b/ (=c'/b/).!1!^f/.g/ (a/g/).!3!^c/.!3!d/ (A/B/)(^F/G/) (!>!!4!^C/!0!D/).^F/.G/.A/.B/.^c/.d/.^f/.g/ (!>!!3!=c'>b) (!fermata!Ta4{!fermata!!1!g!fermata!b)} (a3 !2!g) | %202
 !fermata![G,DBg]12 |] %203
V:2
 x12 | x12 | x12 | x12 | x12 | x12 | x12 | x12 | x12 | x12 | x12 | x12 | x12 | x12 | x12 | x12 | %16
 x12 | x12 | x12 | x12 | x12 | x12 | x12 | x12 | x12 | x12 | x12 | x12 | x12 | x12 | x12 | x12 | %32
 x12 | x12 | x12 | x12 | x12 | x12 | x12 | x12 | x12 | x12 | x12 | x12 | x12 | x12 | x12 | x12 | %48
 x12 | x12 | x12 | x12 | x12 | x12 | x12 | x12 | x12 | x12 | x12 | x12 | x12 | x12 | x12 | x12 | %64
 x12 | x12 | x12 | x12 | x12 | c2 x10 | =B2 x10 | (c2 _B2 =A2) x6 | [G,DB]6 x6 | x6 A4 x2 | %74
 [G,G]6 x6 | x12 | x12 | x12 | x12 | x12 | x12 | x12 | x12 | x12 | x12 | x12 | x12 | x12 | x12 | %89
 x12 | x12 | x12 | x12 | x12 | x12 | x12 | x12 | x12 | x12 | x12 | x12 | x12 | x12 | x12 | x12 | %105
 x12 | x12 | x12 | x12 | x12 | x12 | x12 | x12 | x12 | x12 | x12 | x12 | x12 | x12 | x12 | x12 | %121
 x12 | x12 | x12 | x12 | x12 | x12 | x12 | x12 | x12 | x12 | x12 | x12 | x12 | x12 | x12 | x12 | %137
 x12 | x12 | x12 | x12 | x12 | x12 | [DA] x11 | [EB] x11 | [Dd] x11 | [G,DB] x11 | [G,Dd] x11 | %148
 x12 | x12 | x12 | x12 | x12 | x12 | x12 | x12 | x12 | x12 | x12 | x12 | x12 | x12 | x9!8va(! x3 | %163
 x2!8va)! x10 | x12 | x12 | x12 | x12 | x12 | x12 | x12 | x12 | x12 | x12 | x12 | x12 | x12 | x12 | %178
 x12 | x12 | x12 | x12 | x2 B2 x2 B2 x2 B2 | x2 =B2 x2 B2 x2 B2 | x2 c2 x2 c2 x2 c2 | %185
 x2 B2 x2 B2 x2 A2 | x2 B2 x2 B2 x2 B2 | x2 =B2 x2 d2 x4 | x2 e2 x2 c2 x2 c2 | x2 d2 x2 B2 x2 A2 | %190
 x12 | x12 | x12 | x12 |!8va(! x12 | x12 | x12 | x12 | x12 | x12 | x12!8va)! | x19 T^f4 x4 | x12 |] %203
V:3
 x12 | x12 | x12 | x12 | x12 | x12 | x12 | x12 | x12 | x12 | x12 | x12 | x12 | x12 | x12 | x12 | %16
 x12 | x12 | x12 | x12 | x12 | x12 | x12 | x12 | x12 | x12 | x12 | x12 | x12 | x12 | x12 | x12 | %32
 x12 | x12 | x12 | x12 | x12 | x12 | x12 | x12 | x12 | x12 | x12 | x12 | x12 | x12 | x12 | x12 | %48
 x12 | x12 | x12 | x12 | x12 | x12 | x12 | x12 | x12 | x12 | x12 | x12 | x12 | x12 | x12 | x12 | %64
 x12 | x12 | x12 | x12 | x12 | x12 | x12 | x12 | x12 | x12 | x12 | x12 | x12 | x12 | x12 | x12 | %80
 x12 | x12 | x12 | x12 | x12 | x12 | x12 | x12 | x12 | x12 | x12 | x12 | x12 | x12 | x12 | x12 | %96
 A x11 | x12 | x12 | x12 | x12 | x12 | x12 | x12 | x12 | x12 | x12 | x12 | x12 | x12 | x12 | x12 | %112
 x12 | x12 | x12 | x12 | x12 | x12 | x12 | x12 | x12 | x12 | x12 | x12 | x12 | x12 | x12 | x12 | %128
 x12 | x12 | x12 | x12 | x12 | x12 | x12 | x12 | x12 | x12 | x12 | x12 | x12 | x12 | x12 | x12 | %144
 x12 | x12 | x12 | x12 | x12 | x12 | x12 | x12 | x12 | x12 | x12 | x12 | x12 | x12 | x12 | x12 | %160
 x12 | x12 | x9!8va(! x3 | x2!8va)! x10 | x12 | x12 | x12 | x12 | x12 | x12 | x12 | x12 | x12 | %173
 x12 | x12 | x12 | x12 | x12 | x12 | x12 | x12 | x12 | x12 | x12 | x12 | x12 | x12 | x12 | x12 | %189
 x12 | x12 | x12 | x12 | x12 |!8va(! x12 | x12 | x12 | x12 | x12 | x12 | x12!8va)! | x27 | x12 |] %203
V:4
 x12 | x12 | x12 | x12 | x12 | x12 | x12 | x12 |!mf! ([B,DB]12 | [A,DA]12 | [G,G]12 | %11
 [G,B,G]2 [DGB]2 [DA]8) | z4 (B4 [B,G]4) | z4 (!>!d4 =B4) | z4 (!>!c4 E4) | (G8 ^F4 | %16
 [B,G]2) z!p! (^C D3) (G B4) | !tenuto!A4 !tenuto!F4 !tenuto!D4- | D(DdB G2) !tenuto!g4 (G2 | %19
 ^F4-) F(GBG F4 |"_sempre" G2) z2!p! (B2 A2 G2 B2 | A2) z2 (AFG=E F2) (A2 | G2) z2 (G2 F2 E2 G2 | %23
 ^F4) z2!p! (D2 F2 A2) | (gba).g z2 (D2 G2 B2) | (=fag).f z2 (D2 F2 A2) | (egf).e z2 (G2 C2 E2) | %27
 (dag).^f c'2 z2 z2!f! !>![D^FA]2 |"^un poco più animato" !>![DGB]2!p! (B2 c2 B) z z2 .B2 | %29
 z2 (A2 B2 A) z z2 !tenuto!A2 | z2 (G2 A2 G) z z2 !tenuto!G2 | z2 (^F2 B2 A) z (!>![Bd]2 [Ac]) z | %32
 z2!p! ([DB]2 [Gc]2 [DB]) z z2 !tenuto![DB]2 | z2 ([DA]2 [FB]2 [DA]) z z2 !tenuto![DA]2 | %34
 z2 ([DG]2 [CA]2 [EG]) z z2 !tenuto![CG]2 | z2 ([C^F]2 [DA]2 [CF]) z z2 !tenuto![CF]2 | %36
!p!"^espressivo (agitato)" [B,G] [B,DG]2 [B,D^F]2 [B,DG]2 [B,D=F] z (_dBG) | %37
 z [CG]2 [CF]2 [C=E]2 [CF] z (c_AF) | z [B,F]2 [B,E]2 [B,=D]2 [B,E] z (B_GE) | %39
 z!>(! (_D2 F) z (C2 F) z (C2!>)! F) | %40
 _D4 z!<(! (!tenuto![B,DF]2"_cresc." !tenuto![DFB]2 !tenuto![FB_d]2 !tenuto![Bdf])!<)! | %41
 z4 z (!tenuto![DFB]2 !tenuto![FBd]2 !tenuto![Bdf]2 !tenuto![dfb]) | %42
 z4 z!<(! (!tenuto![=GBe]2 !tenuto![Be_g]2 !tenuto![egb]2 !tenuto![gbe'])!<)! | %43
 _DF"^poco rit."DB, C2!>(! DE D2 C2!>)! |"^a tempo" z!pp! [_df]2 [d_g]2 [d_a]2 [db]2 [dg]2 [dg]- | %45
 [dg] [c_g]2 [cf]2 [cg]2 [c_a]2 [cf]2 [cf]- | [cf] [Bf]2 [Be]2 [B=d]2 [Be]2 [B_g]2 [Bc]- | %47
 [Bc] [B_d]2!>(! [Bf]2 [Bc]2 [Bf]2 [=Ac]2 [Af]!>)! | z2!pp! [F_df]2 z2 [FBd]2 z2 [Fdf]2 | %49
 z2 [Fcf]2 z2 [F_Ac]2 z2 [Fcf]2 | z2 [FBf]2 z2 [FB=d]2 z2 [EBe]2 | z2 [Fce]2 z2 [F=Ac]2 z2 [Fce]2 | %52
!pp! (6:4:6(_de fe de (6:4:6de fe de (6:4:6de fe de) | %53
 (6:4:6(c_d ed cd (6:4:6cd ed cd (6:4:6cd ed cd) | %54
 (6:4:6(Bc _dc Bc (6:4:6Bc dc Bc (6:4:6Bc dc Bc) | %55
!p! (6:4:6(BA Bc _de (6:4:6f_g fg fg (6:4:6fg fe dc) | %56
!p! (3:2:2B4 [_DFB]2- (3:2:2[DFB]2 [DFB]4 (3:2:2[DFB]4 [DFB]2- | %57
"^segue" (3:2:2[DFB]2 [=DFB]4 (3:2:2[DFB]4 [DFB]2- (3:2:2[DFB]2 [DFB]4 | %58
 (3:2:2[B,EB]4 [B,EB]2- (3:2:2[B,EB]2 [B,EB]4 (3:2:2[B,_DB]4 [B,DB]2- | %59
!f! (3:2:2[B,DB]2"^poco rit." [CF_A]4 (3:2:2!>![_DFG]4 [G,B,DF]2- (3:2:2[G,B,DF]2 [G,B,=E]4 | %60
"^a tempo"!p! z2 .[F_A].[FA] z2 .[FA].[FA] z2 .[A_d].[Ad] | %61
 z2 .[G_d].[Gd] z2 .[Gc].[Gc] z2 .[Gc].[Gc] | z2 [Fc][Fc] z2 [FB][FB] z2 [FB][FB] | %63
 z2 [F_A][FA] z2 [=EG][EG] z2 [GB][GB] |!f! z3/2 F/!5!cz/!3!_A/ !1!Fz/!4!C/_A, z z2 [FAc] z | %65
 z3/2 F/cz/_A/ Fz/C/_A, z z2 [FAc] z | z3/2 !2!^F/cz/=A/ Fz/!1!C/!2!A, z!<(! z2 [DFAd] z!<)! | %67
 ([DGd]2 [EAc]2 [DB]4 [CA]4) | %68
 (3z2!f! B,2- [B,DG]2- (3[B,DG]2 B,2- [B,DG]2- (3[B,DG]2 B,2- [B,DG]2 | %69
 (3z2 C2- [CE_A]2- (3[CEA]2 C2 [CEA]2- (3[CEA]2 C2- [CEA]2 | %70
 (3z2 =B,2- [B,DG]2- (3[B,DG]2 C2- [CEG]2- (3[CEG]2 C2- [CEG]2 | %71
 (3z2 D2- [DG_B]2 (3z2 D2- [DGA]2 (3z2 D2- [D^FA]2 | %72
 (3z2!p! D2- [DGB]2- (3[DGB]2 D2 [DGB]2- (3[DGB]2 D2- [DGB]2 | %73
 (3z2 C2- [CEA]2 (3z2"_cresc." C2- [CFA]2 (3z2 D2- [DFA]2 | %74
 (3z2 D2 [DG=B]2 (3z2 C2- [CGc]2 (3z2 G,2- [G,C]2 | %75
 (3z2 G,2- [G,B,D]2- (3[G,B,D]2 G,2- [G,A,D]2- (3[G,A,D]2 ^F,2- [F,A,D]2 | %76
"^a tempo" [G,B,D]2 z2 z2!pp! (B2 d2 B2) | A2 z2 z2 (A2 d2 A2) | G2 z2 z2 (G2 c2 G2) | %79
 ^F2 z2 z2 (F2 A2 D2) |!f! z2 .B z!>(! (!>!d2 B)!>)! z!>(! (!>![Bd]2 [GB])!>)! z | %81
 z2 .A z!>(! (d2 A)!>)! z!>(! ([Fd]2 [DA])!>)! z | %82
 z2 .G z!>(! (c2 G)!>)! z!>(! (!>![Ec]2 [CG])!>)! z | %83
 z2 .^F z!>(! (A2 F)!>)! z!>(! ([Dd]2 [FA])!>)! z | z4!f! (GD).G.A (!>!B2 G) z | %85
 z4"_cresc." (!>!GD).G.A (!>!=B2 G) z | z4"_allarg." (^GD).G.A =B2 !tenuto![=B,=EG]2 | %87
 (!tenuto![=EA]2 !tenuto![FA=B]2 !tenuto![EAc]4 !tenuto![DE^GB]4) | %88
"^Tempo I."!ff! (A2 ^G2) A2 =B2 [=EAc]4 | [=E=B]4 [=B,=G]4 [B,E]4 | %90
 (=E2 !courtesy!=C2 D4) (A2 =B2 | [=EAc]4) [DE=B]8 | [=EA]4 (A2 ^G2 [CEA]2 [DE=B]2 | %93
 [=EA^c]4) [EA=e]4 [EAc]4 | [DAd]4 [A,A]8 |"_poco rit." [C=EA]4!>(! (A4 ^G4!>)! | %96
"^a tempo" [C=EA]2) z2!pp! !tenuto![EA=e]4 z2 (([CE-A]2 | %97
 [=B,E=B]2)) z2 !tenuto![=EB=e]4 z2 ([EB]2 | [DAd]2) z2 !tenuto![Adf]4 z2 ([A,DA]2 | %99
 [=B,=E^G]2) z2 !tenuto![EG=B]4 z2 (([B,D]2 | %100
 [A,C]2))!p!!<(! ([Ac]2!<)!!>(! [c=e]2!>)! [Ac]) z z4 | %101
 z2!<(! ([G=B]2!<)!!>(! [B=e]2!>)! [GB]) z z4 | z2!<(! ([FA]2!<)!!>(! [Ad]2!>)! [FA]) z z4 | %103
 z2!<(! ([=E^G]2!<)!!>(! [G=B]2!>)! [EG]) z z2 !>![=B,EG] z | %104
 !>![C=EA] z!p! (!>!c2 A) z (!>!C2 ^G,2 A,) z | z2 (!>!=B2 G) z x2 x4 | z2 (!>!A2 F) z x2 x4 | %107
 z2 (!>!^G2 =E) z x2 x4 |!pp!"^tranquillo" (!tenuto![c=ec']4 !tenuto![ce]4 !tenuto![cec']4) | %109
 (!tenuto![=B=e=b]4 !tenuto![Be]4 !tenuto![Beb]4) | %110
 (!tenuto![A=ea]4 !tenuto![Ad]4 !tenuto![Ada]4) | %111
 (!tenuto![d^g]4 !tenuto![dg=b]4 !tenuto![dg=e']4) | %112
!pp! (6:4:6(c=e ce ce (6:4:6ce ce ce (6:4:6ce ce ce) | %113
 (6:4:6(c=e ce ce (6:4:6cd cd cd (6:4:6=Bd Bd Bd) | %114
 (6:4:6(_B_d Bd Bd (6:4:6Bc Bc Bc (6:4:6Ac Ac Ac) | %115
 (6:4:6(_Ac Ac Ac (6:4:6AB AB AB (6:4:6GB GB GB) | %116
 (6:4:6(GB GB GB (6:4:6GA GA GA (6:4:6^FA FA FA) | %117
 (6:4:6G(B, DGDB,) (6:4:6z!<(! (B, DGDB,)!<)! (6:4:6z (B,"_cresc." DGDB,) | %118
 (6:4:6z!>(! (C EGEC)!>)! (6:4:6z (C E^FEC) (6:4:6z!<(! (C FAFC)!<)! | %119
 (6:4:6z!>(! (D ^FAFD)!>)! (6:4:6z (D FGFG) (6:4:6z!<(! (D GBGD)!<)! | %120
 (6:4:6z (E GBGE) (6:4:6z (E BEAE) (6:4:6z"_radolcendo"!>(! (E _AceA)!>)! | %121
 (6:4:6z (F _ABfB) (6:4:6z (F A!>(!BfB) (6:4:6z (F ABfB)!>)! | %122
!pp! (6:4:6z (G BgeB) (6:4:6z (G =BgeB) (6:4:6z (G cgcG) | %123
 (6:4:6z (F cfBF) (6:4:6z (F _AfBA) (6:4:6z (F AfBA) | %124
 (6:4:6z (E Be_AE) (6:4:6z (E GeGE) (6:4:6z (E AeAE) | %125
 (6:4:6z (!>!D"_suivez" _AfBA) (6:4:6z (!>!C AeBA) (6:4:6z (!>!D AfBA) | %126
"^a tempo, con moto"!pp! !arpeggio![GBeg] z !arpeggio![G,B,E]z!arpeggio![B,EG]z!arpeggio![EGB]z!arpeggio![GBe]z!arpeggio![Beg] z | %127
 z2[I:staff +1] !arpeggio![F,B,D][I:staff -1]z!arpeggio![B,DF]z!arpeggio![DFB]z!arpeggio![FBd]z!arpeggio![Bdf] z | %128
 x2[I:staff +1] !arpeggio![E,G,C][I:staff -1]z[I:staff +1]!arpeggio![G,CE][I:staff -1]z!arpeggio![CEG]z!arpeggio![EGc]z!arpeggio![Gce] z | %129
 z2[I:staff +1] !arpeggio![E,G,B,][I:staff -1]z!arpeggio![G,B,E]z!arpeggio![B,EG]z!arpeggio![B,DF]z!arpeggio![DFB] z | %130
"^cantando""_poco a poco cresc." (!>!E2 !>!D2) !>!E2 !>!F2 !>![B,EG]4 | %131
 !>![F,B,F]4 !>![F,B,D]4 !>![F,B,]4 | E4 !>![E,E]2 !>![F,F]2 !>![G,E]2 !>![!courtesy!=A,EF]2 | %133
"_e poco rit." !>![DF]4 !>![DF]4 !>![F_AB]4 |!pp!"^a tempo" z2 (_G4 _A2 B2 _c2) | %135
 z2 (F4 _G2 _A2 B2) | z2 (E4 F2 _G2 _A2) | z2 (=D2 F2 B2 _A2 F2) | %138
!pp! z2 (!tenuto![ee']4 !tenuto![ee']4 !tenuto![ee']2-) | %139
 [ee']2 (!tenuto![_d_d']4 !tenuto![dd']4 !tenuto![dd']2-) | %140
 [dd']2 (!tenuto![_c_c']4 !tenuto![cc']4 !tenuto![cc']2-) | %141
!<(! [cc']2"_allargando" (!tenuto![Bb]4 !tenuto![Bb]4 !tenuto![Bb]2)!<)! | %142
!ff! [B,E=GB]4 !>![B,DG]8 | !>![A,DFA]8 !>![DFAd]4 |"_molto marcato" [G,B,D]4 [G,B,C]4 [G,B,^C]4 | %145
 [G,B,D]4 [A,D^F]4 [CDA]4 | [G,B,DG]8 [DGB]4 | [DG=B]8 [DGB]4 | [CGc]8[K:bass] [C,G,C]4 | %149
 [^F,CE]4 [G,B,D]4 [D,F,C]4 |!f! !>![D,G,B,][K:treble]zz.[B,D] .[B,E]zz.[B,E] .[B,=E]z.[^CEB] z | %151
 .[DA]zz!f!.[A,^C] [A,D]zz[A,D] [=B,D]z[B,D_A] z | %152
 [CG]zz[G,=B,] [G,C]zz"_espress."[G,C] [_A,C]z[CE] z | %153
!>(! ([Ec]3 [DB] [C=A]2 [B,G]2) z2 ([CD^F]2!>)! | %154
 [B,DG])!p! z (B2 !tenuto!B2 !tenuto!B2 !tenuto!B2 !tenuto!A2 | %155
 A2) (!>!!tenuto!_A2 !tenuto!A2 !tenuto!A2 !tenuto!A2 !tenuto!G2 | %156
 !tenuto!G2) (!>!!tenuto!G2 !tenuto!G2 !tenuto!G2) (e2 g2 | b2 g2 c2 e2 d2 (c2) | %158
 [Bg]2) z2 z4 z2!f! !>![B,DB]2 | !>![DAd]2 z2 z4 z2 !>![A,DF]2 | !>![B,EG]2 z2 z4 z2 !>![EGc]2 | %161
 !>![^FAd]2 z2 z4 z2 !>![DFA]2 | !>![DGB] z!p! ([gg']2 [dd']2 [Bb]2 [Gg]4) | %163
 z2"_cresc." ([gg']2 [dd']2 [=B=b]2 [_A_a]4) | z2 ([gg']2 [ee']2 [cc']2 [Gg]4) | %165
 !>![G,B,D]2 !>![DG]2 !>![DGB]2 !>![GBd]2 [^Fcd^f]4 | %166
 !>![GBdg]2!pp!!>(! (^F2 G2)!>)!!>(! (A2 G2)!>)!!>(! (!4!A2 | %167
 =B2)!>)!!>(! (c2 B2)!>)!!>(! (c2 d2)!>)!!>(! (B2!>)! | %168
 g2)!>(! (=B2 c2)!>)!!>(! (d2 e2)!>)!!>(! (A2 | %169
 [^Fc]2)!>)!!>(! ([GA]2 [Fc]2)!>)! ([GA]2"^ten." [Fd]4) |!pp! z2 .[DB] z z2 .[Dc] z z2 .[DB] z | %171
 z2 .[DA] z z2 .[DB] z z2 .[DA] z | z2 .[DG] z z2 .[CA] z z2 .[CG] z | %173
 z2 .[C^F] z z2 .[FA] z z2 .[A,F] z | %174
"_cantando" z2 ([Dd]2"_poco a poco cresc." [Ee]6) !tenuto![Ee]2 | %175
 ([Ee]2 [Cc]2 [Dd]6) !tenuto![Dd]2 | ([Dd]2 [=B,=B]2 [Cc]6) !tenuto![Cc]2 | %177
 ([Cc]2 [=B,=B]2 ([Cc]6) [A,A]2) |!f!"^più largo""_cresc." [_B,DG_B]12 |!<(! [FB_d]12!<)! | %180
!ff! [_GB_g]4 [G_cg]6"_suives" !>![=C^F=c]2- | ([Fc]2 [GB]2!>(! (A8)!>)! | %182
"^a tempo" [B,G]2)[K:bass]!p! (^F,2 G,2 A,2 B,4) |"_cresc. e affrettando" =B,4 D4 x4 | %184
[K:treble] (G2 ^F2 G2 E2 [G,C]4) | ([G,B,]2 G2 [B,D]4) ([A,C]3 [G,B,]) | %186
!f! (3([G,B,]2[I:staff +1] .D,2 .=E,2) (3(.^F,2 .G,2 .A,2) B,4 |[I:staff -1] (=B,4 D4 G4-) | %188
 (3G2 (.G2 .^F2) (3(_A2 G2) .E2 ([G,-C]4 | %189
 (3[G,B,]2) (E2 ^C2 (3D2) !tenuto![G,B,]2 !tenuto![B,D]2 ([A,=C]3 [G,B,]) | %190
!f! (!>![G,B,]^F,).!1!G,.!1!A, (!>!G^F).!5!G.!5!A (!>![DB]2 [B,G]) z | %191
 (!>!G,^F,).!1!G,.!1!A, (G!4!^F)!5!G!5!A ([D=B]2 [_B,G]) z | %192
 (G,^F,).G,.!3!=B,"_allargando" (G^F)G=B [CGc]4 | %193
 z !4![DGB]!3![GBd][Bdg] [Adg][Ad]!5![GAd][DGA] [CD^FAd]4 |!ff! [Bd]8 [Bdgb]4 | d12 | %196
 [Gg]4 ([Gg]2 [^F^f]2) [Gg]2 [Aa]2 | [_Bdg_b]4 (g4 ^f4) | [Bd]12 | [Bg]12 | [eg]8 [Gcg]4 | %201
 !fermata![GBdg]4 x8 x x2 x4 !fermata![^Fcd^f]8 | !fermata![GBdg]12 |] %203
V:5
 (G,12 | F,12 | E,12 | D,12) | (G,12 | [F,A,]12 | B,6 C6 | [A,D]12) | ([G,,G,]12 | [F,,F,]12 | %10
 [E,,E,]12 | [D,,D,]12) | ([G,,G,]12 | [F,,F,]12 | [E,,E,]12 | [D,,D,]12 | %16
 [G,,G,]2) z2 z4 z2 (G,2 | F,2) z2 z4 z2 (F,2 | E,2) z2 z4 z2 (E,2 | D,2) z2 z4 z2 (D,2 | %20
 [G,,G,]2) z2 z4 z2 (G,2 | F,2) z2 z4 z2 (F,2 | E,2) z2 z4 z2 (E,2 | D,4) z4 z4 | %24
 z4 (G,B,A,).G, z4 | z4 (F,A,G,).F, z4 | z4 (E,G,F,).E, z4 | z4 (D,^F,=E,).D, z2 !>![D,,D,]2 | %28
 !>![G,,,G,,]2 z2 z4 .[G,B,D] z z2 | .[F,A,D] z z2 z4 .[F,A,D] z z2 | %30
 .[E,G,D] z z2 z4 .[E,G,C] z z2 | .[D,A,C] z z2 z4 [D,D] z z2 | .G, z z2 z4 .G, z z2 | %33
 .F, z z2 z4 .F,, z z2 | .E,, z z2 z4 .E, z z2 | .D, z z2 z4 .D,, z z2 |{/G,,} G,8 (B,4 | %37
 _A,8) (_A,,4 | _G,,8) (_G,4 | F,8) F,,4 | z8 B,4 | z8 _A,4 | z8 _G,4 | z8 F,4 | %44
 [B,,,B,,]8[K:treble] (B4 | _A8) (A4 | _G8) (G4 | F8)[K:bass] (F,4 | %48
"_con Pedale" [B,,B,]2) z2 [B,,,B,,]2 z2 [B,,B,]2 z2 | [_A,,_A,]2 z2 [_A,,,A,,]2 z2 [A,,A,]2 z2 | %50
 [_G,,_G,]2 z2 [_G,,,G,,]2 z2 [G,,G,]2 z2 | [F,,F,]2 z2 [F,,,F,,]2 z2 [F,,F,]2 z2 | %52
[K:treble] z4 _D4- [D_G-]4 | G4 E4 F4- | F4 _D4 E4 | [B,-_D]4 ([B,C-]4 [=A,C]4) | %56
[K:bass] (3:2:2B,2 [B,,B,]4 (3:2:2[B,,B,]4"_cresc." [B,,B,]2- (3:2:2[B,,B,]2 [B,,B,]4 | %57
 (3:2:2[_A,,_A,]4 [A,,A,]2- (3:2:2[A,,A,]2 [A,,A,]4 (3:2:2[A,,A,]4 [A,,A,]2- | %58
 (3:2:2[A,,A,]2 [_G,,_G,]4 (3:2:2[G,,G,]4 [G,,G,]2- (3:2:2[G,,G,]2 [=G,,=G,]4 | %59
 (3:2:2[_A,,_A,]4 [B,,B,]2- (3:2:2[B,,B,]2 [C,C]4 (3:2:2!>![C,C]4 [C,C]2 | %60
 .F,.F, z2 .F.F z2 .F,.F, z2 | ._E,.E, z2 .E.E z2 .E,.E, z2 | _D,D, z2 _DD z2 D,D, z2 | %63
 C,C, z2 CC z2 C,C, z2 | [F,,F,] z z2 z2 z3/2 F,/ F,,z[F,C] z | %65
 [_E,,_E,] z z2 z2 z3/2 E,/ E,,z[E,C] z | [D,,D,] z z2 z2 z3/2 D,/ D,,z[C,,C,] z | %67
 ([B,,,B,,]2 [C,,C,]2 [D,,D,]4 [D,,,D,,]4) | (G,,,4 (G,,4) G,4) |!>(! (G,4 F,4)!>)! F,4 | %70
!>(! (F,4 E,4)!>)! (E,4 | D,4) D,,4 D,4 | G,,4 [G,,,G,,]4 [G,,G,]4 | %73
 (([G,,G,]4 [F,,F,]4)) [F,,F,]4 | (([F,,F,]4 [E,,E,]4)) [E,,E,]4 | %75
 [D,,D,]4 [D,,,D,,]4!>(! [D,,D,]4!>)! | [G,,,G,,]2 z2 z2 [G,D]4 [G,D]2 | %77
 [F,D]2 z2 z2 [F,D]4 [F,D]2 | [E,D]2 z2 z2 [E,C]4 [E,C]2 | [D,C]2 z2 z2 [D,C]4 [D,C]2 | %80
 !>![G,,,G,,] z z2 !>![G,G]6 !>![G,,,G,,]2 | !>![F,,,F,,]2 z2 !>![F,F]6 !>![F,,,F,,]2 | %82
 !>![E,,,E,,]2 z2 !>![E,E]6 !>![E,,,E,,]2 | !>![D,,,D,,]2 z2 !>![D,D]6 !>![D,,,D,,]2 | %84
 z4!ped! [G,,G,] z z2 [G,B,D] z z2!ped-up! | z4!ped! [F,,F,] z z2 [F,G,=B,D] z z2!ped-up! | %86
 z4!ped! [=E,,=E,] z z2 [D,,D,]4!ped-up! | ([C,,C,]2 [D,,D,]2 [=E,,=E,]4 [=E,,,E,,]4) | %88
 [A,,,A,,]8 (([A,,A,]4 | [G,,G,]8)) (([G,,,G,,]4 | [F,,,F,,]8)) (([F,,F,]4 | %91
 [=E,,=E,]8)) (([=E,,,=E,,]4 | [A,,,A,,]8)) (([A,,A,]4 | [G,,G,]8)) (([G,,,G,,]4 | %94
 [F,,,F,,]8)) (([F,,F,]4 | [=E,,=E,]4)) (([=E,,,E,,]8 | [A,,,A,,]2)) z2 z4 (A,4 | %97
 G,2) z2 z4 (G,,4 | F,,2) z2 z4 (F,4 | =E,2) z2 z4 (([=E,,E,]4 | %100
 [A,,=E,]2)) z2 z2 ([A,C]2 [C=E]2 [A,C]2 | [G,=B,]) z z2 z2 ([G,B,]2 [B,=E]2 [G,B,]2 | %102
 [F,A,]) z z2 z2 ([F,A,]2 [A,D]2 [F,A,]2 | [=E,^G,]) z z2 z2 ([E,G,]2 [G,=B,]2) !>![=E,,E,] z | %104
 !>![A,,,A,,] z z2 [A,C=E] z z2 z2 [A,,,A,,] z | [=G,,,=G,,] z z2 [G,=B,=E] z (=B,2 ^F,2 G,) z | %106
 [F,,,F,,] z z2 [F,A,D] z (!>!A,2 =E,2 F,) z | [=E,,,=E,,] z z2 [=E,^G,D] z (^G,2 ^D,2) !>!=E,2- | %108
 (3(.E,2 .^F,2 .^G,2 (3.A,2 .=B,2 .C2 (3.D2 .=E2 .=F2- | %109
 (3F2) (.=E,2 .=F,2 (3.G,2 .A,2 .=B,2 (3.C2 .D2 .=E2- | %110
 (3E2) (.D,2 .=E,2 (3.F,2 .G,2 .A,2 (3.=B,2 .C2 .D2- | %111
 (3D2) (.=B,2 .D2[I:staff -1] (3.^G2 .D2 G2 (3.=B2 .=e2 .B2) | %112
[I:staff +1]{/A,,,} (A,,4 A,4[K:treble] A4) | G8 (G4 | F8) (F4 | _E8) (E4 | =D8) D4 | %117
[K:bass] (G,4 G,,4 G,4 | (A,4) A,,4 (A,4) | (B,4) B,,4 (B,4) | (C4) C,4 (C4) | (D4) D,4 (D4) | %122
 (E4) E,4 (E4) | (D4) D,4 (D4) | (C4) C,4 (C4) | (B,4) B,,4 B,4) | %126
"_con Pedale" E,, z z2 z4 z2 (!>!E,2 | D,,) z z2 z4 z2 (!>!D,2 | C,,) z z2 z4 z2 (!>!C,2 | %129
 B,,,) z z2 B,, z z2 B,,, z z2 | [E,,E,]12 | (D,2 !>!F,,2 !>!B,,2 !>!C,2 !>!D,2 !>!F,2 | %132
 !>!G,2) !>!F,2 x8 | B,2 !>!F,!>!G, !>!_A,2 !>!B,2[I:staff -1] !>!C2 !>!D2 | %134
[I:staff +1] E8- [E_G]4 | _D8- [DF]4 | _C8- [CE]4 | B,8- [B,D]4 | %138
[K:treble] ([E_G]4 [F_A]4 [GB]2 [A_c]2) | ([_DF]4 [E_G]4 [F_A]2 [GB]2) | %140
 ([_CE]4 [_DF]4 [E_G]2 [F_A]2) | ([B,=D]4 [DF]4 [E_G]2 [F_A]2) | %142
[K:bass] [E,,=G,,B,,E,]4{/G,,,} !>![G,,B,,D,G,]8 | !>![F,,A,,D,F,]8 !>![F,,A,,D,F,]4 | %144
 [E,,,E,,]4 [E,,E,]8 | [D,,D,]4 [D,,,D,,]8 | [G,,,G,,]8 [G,,G,]4 | [F,,G,,F,]8 [F,,G,,F,]4 | %148
 [E,,G,,E,]8 [E,,,E,,]4 | [D,,,D,,]8 [D,,,D,,]4 | !>![G,,,G,,]zz.G, .G,zz.G, .G,z.G,, z | %151
 .F,,zz.F, F,zzF, F,zF,, z | E,,zzE, E,zzE, E,zE,, z | D,,zzD,, D,zzD, DzD, z | [G,,G,] z x2 x8 | %155
 x12 | x12 | x12 | x2 z2 z4 z2 !>![G,,G,]2 | !>![F,,F,]2 z2 z4 z2 !>![F,,F,]2 | %160
 !>![E,,E,]2 z2 z4 z2 !>![E,,E,]2 | !>![D,,D,]2 z2 z4 z2 !>![D,,D,]2 | %162
 !///-!!>!G,,,2 G,,2 !///-!G,,,2 G,,2 !///-!G,,,2 G,,2 | %163
 !///-!F,,,2 F,,2 !///-!F,,,2 F,,2 !///-!F,,,2 F,,2 | %164
 !///-!E,,,2 E,,2 !///-!E,,,2 E,,2 !///-!E,,,2 E,,2 | %165
 !///-!D,,,2 D,,2 !///-!D,,,2 D,,2 !///-!D,,,2 D,,2 | !>![G,,,G,,]2 B,4 (C2 =B,2) (C2 | %167
 D2) (!2!E2 !1!D2) (C2 =B,2) (D2 | [E,G,]2) !>![E,G,]4 !>![E,G,]4 !>![E,C-]2 | %169
 C2 C4 C2"_ten." !>!C4 | .G, z z2 .G, z z2 .G, z z2 | .F, z z2 .F, z z2 .F, z z2 | %172
 .E, z z2 .E, z z2 .E, z z2 | .D, z z2 .D, z z2 .D, z z2 | G,, z z2 z2 ([G,B,]2 [B,E]2 [G,B,]) z | %175
 z4 z2 ([F,A,]2 [A,D]2 [F,A,]) z | z4 z2 ([E,G,]2 [G,C]2 [E,G,]) z | z4 z2 (D,2 D2 D,) z | %178
 [G,,B,,D,G,]12 | [F,,B,,_D,F,]12 | [E,,B,,E,]4 [E,_CE]6 ((!>![E,,E,]2 | [D,,D,]8)) (([D,,,D,,]4 | %182
 [G,,,G,,]8)) (3(G,,2 G,2"^sempre" G,,2) | =F,,8 (3(F,,2 F,2 F,,2) | E,,8 (3(E,,2 E,2 E,,2) | %185
 D,,4- (3(D,,2 D,,2 D,2) (3(D,,2 D,2 D,,2) | G,,8 (G,,G,G,,G, | =F,,8) (F,,F,F,,F, | %188
 E,,8) (E,,E,E,,E, | D,,8) (D,,D,D,,D,) | %190
 !///-!G,,,2 G,,2 !///-!G,,,2 G,,2 (!>![G,,,G,,][^F,,,^F,,]).[G,,,G,,].[F,,,F,,] | %191
{/=F,,} !///-!!>!=F,,,2 F,,2 !///-!F,,,2 F,,2!8vb(! (!>![G,,,G,,][^F,,,^F,,]).[G,,,G,,].[=F,,,=F,,] | %192
{/E,,} !///-!!>!E,,,2 E,,2 !///-!E,,,2 E,,2 (!>![E,,,E,,][D,,,D,,]).[E,,,E,,].[C,,,C,,] | %193
{/D,,} !///-!!>!D,,,2 D,,2 !///-!D,,,2 D,,2!8vb)! [D,,D,][C,,C,][B,,,B,,][A,,,A,,] | %194
 [D,B,D]8 [G,B,DG]4 | [=F,,,=F,,=F,D]12 | G,4 (G,2 ^F,2) G,2 A,2 | [G,_B,D]4 (G,4 ^F,4) | %198
 [G,,,G,,D,B,D]12 | [F,,,F,,F,G,D]12 |"_violinworker 11/2019" [E,G,]8 [E,G,C]4 | %201
 !fermata![D,G,B,D]4 x8 x x2 x4 !fermata![D,A,CD]8 | !fermata![D,G,B,D]12 |] %203
V:6
 ([G,,,G,,]12 | [F,,,F,,]12 | [E,,,E,,]12 | [D,,,D,,]12) | ([G,,,G,,]12 | [F,,,F,,]12 | %6
 [E,,,E,,E,G,]12 | [D,,,D,,]12) | x12 | x12 | x12 | x12 | x12 | x12 | x12 | x12 | x12 | x12 | x12 | %19
 x12 | x12 | x12 | x12 | x12 | x12 | x12 | x12 | x12 | x12 | x12 | x12 | x12 | x12 | x12 | x12 | %35
 x12 | x12 | x12 | x12 | x12 | B,,12 | _A,,12 | _G,,12 | F,,12 | x8[K:treble] x4 | x12 | x12 | %47
 x8[K:bass] x4 | x12 | x12 | x12 | x12 |[K:treble] B,12 | [_A,C]12 | [_G,B,]12 | F,12 | %56
[K:bass] x12 | x12 | x12 | x12 | x12 | x12 | x12 | x12 | x12 | x12 | x12 | x12 | x12 | x12 | x12 | %71
 x12 | x12 | x12 | x12 | x12 | x12 | x12 | x12 | x12 | x12 | x12 | x12 | x12 | x12 | x12 | x12 | %87
 x12 | x12 | x12 | x12 | x12 | x12 | x12 | x12 | x12 | x12 | x12 | x12 | x12 | x12 | x12 | x12 | %103
 x12 | x12 | x6 z2 z2 [G,,,G,,] z | x6 z2 z2 [F,,,F,,] z | x6 z2 z2 [=E,,,=E,,] z |{/A,,,} A,,12 | %109
 G,,12 | F,,12 | =E,,12 | x8[K:treble] x4 | x12 | x12 | x12 | x12 |[K:bass] x12 | x12 | x12 | x12 | %121
 x12 | x12 | x12 | x12 | x12 | x12 | x12 | x12 | x12 | x12 | ([D,,D,]12 | [C,,C,]12) | %133
 [B,,,B,,]8 [B,,B,]4 | x12 | x12 | x12 | x12 |[K:treble] x12 | x12 | x12 | x12 |[K:bass] x12 | %143
 x12 | x12 | x12 | x12 | x12 | x12 | x12 | x12 | x12 | x12 | x12 | x12 | x12 | x12 | x12 | x12 | %159
 x12 | x12 | x12 | x12 | x12 | x12 | x12 | x2 !>!G,4 !>!G,4 (!>!G,2 | F,2) !>!F,4 !>!F,4 !>!F,2 | %168
 x12 | D,2 (E,2 D,2) (E,2 D,4) | x12 | x12 | x12 | x12 | x12 | [F,,F,]12 | [E,,E,]12 | [D,,D,]12 | %178
 x12 | x12 | x12 | x12 | x12 | x12 | x12 | x12 | x12 | x12 | x12 | x12 | x12 | x8!8vb(! x4 | x12 | %193
 x8!8vb)! x4 | (G,2 ^F,2) G,2 A,2 x4 | A,4 (F,4 D,4) | (D2 =B,2 C8) | x4 (A,6 G,2) | %198
 G,4 (G,2 ^F,2) G,2 A,2 | =B,4 (B,2 C2) D2 B,2 | C4 _B,2 _A,2 x4 | %201
 !fermata![D,,,D,,]4 x15 !fermata![D,,,D,,]8 | !fermata![G,,,G,,]12 |] %203
V:7
 x12 | x12 | x12 | x12 | x12 | x12 | x12 | (G,6 ^F,6) | x12 | x12 | x12 | x12 | x12 | x12 | x12 | %15
 x12 | x12 | x12 | x12 | x12 | x12 | x12 | x12 | x12 | x12 | x12 | x12 | x12 | x12 | x12 | x12 | %31
 x12 | x12 | x12 | x12 | x12 | x12 | x12 | x12 | x12 | x12 | x12 | x12 | x12 | x8[K:treble] x4 | %45
 x12 | x12 | x8[K:bass] x4 | x12 | x12 | x12 | x12 |[K:treble] x12 | x12 | x12 | x12 | %56
[K:bass] x12 | x12 | x12 | x12 | x12 | x12 | x12 | x12 | x12 | x12 | x12 | x12 | x12 | x12 | x12 | %71
 x12 | x12 | x12 | x12 | x12 | x12 | x12 | x12 | x12 | x12 | x12 | x12 | x12 | x12 | x12 | x12 | %87
 x12 | x12 | x12 | x12 | x12 | x12 | x12 | x12 | x12 | x12 | x12 | x12 | x12 | x12 | x12 | x12 | %103
 x12 | x12 | x12 | x12 | x12 | x12 | x12 | x12 | x12 | x8[K:treble] x4 | x12 | x12 | x12 | x12 | %117
[K:bass] x12 | x12 | x12 | x12 | x12 | x12 | x12 | x12 | x12 | x12 | x12 | x12 | x12 | x12 | x12 | %132
 x12 | x12 | x12 | x12 | x12 | x12 |[K:treble] x12 | x12 | x12 | x12 |[K:bass] x12 | x12 | x12 | %145
 x12 | x12 | x12 | x12 | x12 | x12 | x12 | x12 | x12 | x12 | x12 | x12 | x12 | x12 | x12 | x12 | %161
 x12 | x12 | x12 | x12 | x12 | x12 | x12 | x12 | x12 | x12 | x12 | x12 | x12 | x12 | x12 | x12 | %177
 x12 | x12 | x12 | x12 | x12 | x12 | x12 | x12 | x12 | x12 | x12 | x12 | x12 | x12 | x8!8vb(! x4 | %192
 x12 | x8!8vb)! x4 | x12 | x12 | x12 | x4 D,8 | x12 | x12 | x12 | x27 | x12 |] %203
V:8
 x12 | x12 | x12 | x12 | x12 | x12 | x12 | x12 | x12 | x12 | (D4 C8) | x4 (G4 ^F4) | x4 D8 | %13
 x4 [DG]8 | x4 [CG]8 | D4!>(! C8!>)! | x12 | x12 | x12 | x12 | x4 E6 E2- | E2 x2 D6 D2- | %22
 D4 C6 C2- | C4 x8 | x12 | x12 | x12 | x12 | x12 | x12 | x12 | x12 | x12 | x12 | x12 | x12 | %36
 x9 [_D=E]3 | x9 C3 | x9 B,3 | x B,3 x B,3 x =A,3 | (B,A,B,C _D8) | (!1!B,C=D!1!E F8) | %42
 (!1!B,E_G!1!_A B8) | x12 | B,8 x4 | x12 | x12 | x12 | x12 | x12 | x12 | x12 | x12 | x12 | x12 | %55
 x12 | x12 | x12 | x12 | x12 | x12 | x12 | x12 | x12 | x12 | x12 | x12 | x4 A2 G4 ^F2 | x12 | x12 | %70
 x12 | x12 | x12 | x12 | x12 | x12 | x12 | x12 | x12 | x12 | x12 | x12 | x12 | x12 | x12 | x12 | %86
 x12 | x12 | [C=E]8 x4 | x12 | A,8 D4 | x4 (A4 ^G4) | (C2 =B,2) [C=E]4 x4 | x12 | x4 D4 E4 | %95
 x4 [=B,=E-]8 | x12 | x12 | x12 | x12 | x12 | x12 | x12 | x12 | x12 | x12 | x12 | x12 | x12 | x12 | %110
 x12 | x12 | x12 | x12 | x12 | x12 | x12 | x12 | x12 | x12 | x12 | x12 | x12 | x12 | x12 | x12 | %126
 x12 | x12 | x12 | x12 | [G,B,]6 [B,D]2 x4 | x12 | x12 | x12 | x12 | x12 | x12 | x12 | x12 | x12 | %140
 x12 | x12 | x12 | x12 | x12 | x12 | x12 | x12 | x8[K:bass] x4 | x12 | x[K:treble] x11 | x12 | %152
 x12 | x12 | x2 z"_suivez" (!tenuto!G2 !tenuto!G2 !tenuto!G2 !tenuto!G2 !tenuto!G- | %155
 G) (!tenuto!^F2 !tenuto!=F2 !tenuto!F2 !tenuto!F2 !tenuto!F2 !tenuto!F- | %156
 F) (!tenuto!=E2 !tenuto!_E2 !tenuto!E2 !tenuto!E2 !tenuto!E2 !tenuto!E- | %157
 E) (!tenuto!D2 !tenuto!D2 !tenuto!D2 !tenuto!D2 !tenuto!D2 (!tenuto!D) | [G,D]2) x10 | x12 | x12 | %161
 x12 | x8 z2 !>!D2 | !>!G,8 z2 !>!=B,2 | !>!C8 z2 [G,B,^C]2 | x12 | x2 D4 (E2 D2) (E2 | %167
 _A2) A4 A4 (A2 | G2) G4 G4 G2 | x12 | x12 | x12 | x12 | x12 | x12 | x12 | x12 | ^F12 | x12 | x12 | %180
 x12 | C4 [DG]4 [C^F]4 | x2[K:bass] x10 | (G,2 ^F,2 G,2 A,2 [=B,G]4) |[K:treble] C8 x4 | x12 | %186
 x12 | (3z2 (.G,2 .^F,2) (3(.G,2 .A,2 ._B,2) B,4 | C8 x4 | x12 | x4 !2!B, x x2 x4 | x4 =B,2 x2 x4 | %192
 x4 [CE] x x2 x4 | x12 | (([Gg]2 [^F^f]2)) [Gg]2 [Aa]2 x4 | [Aa]4 (([Ff]4 [Dd]4)) | (d2 =B2 c8) | %197
 x4 (([Aa]6 [Gg]2)) | [Gg]4 (([Gg]2 [^F^f]2)) [Gg]2 [Aa]2 | [=B=b]4 ([Bb]2 [cc']2) [dd']2 [Bb]2 | %200
 [cc']4"_rall." [_B_b]2 [_A_a]2 x4 | x27 | x12 |] %203
V:9
 x12 | x12 | x12 | x12 | x12 | x12 | x12 | x12 | x12 | x12 | x12 | x12 | x12 | !>!G,12 | G,12 | %15
 x12 | x12 | x12 | x12 | x12 | x12 | x12 | x12 | x12 | x12 | x12 | x12 | x12 | x12 | x12 | x12 | %31
 x12 | x12 | x12 | x12 | x12 | x12 | x12 | x12 | x12 | x12 | x12 | x12 | x12 | x12 | x12 | x12 | %47
 x12 | x12 | x12 | x12 | x12 | x12 | x12 | x12 | x12 | x12 | x12 | x12 | x12 | x12 | x12 | x12 | %63
 x12 | x12 | x12 | x12 | x12 | x12 | x12 | x12 | x12 | x12 | x12 | x12 | x12 | x12 | x12 | x12 | %79
 x12 | x12 | x12 | x12 | x12 | x12 | x12 | x12 | x12 | x12 | x12 | x12 | x12 | x12 | x12 | x12 | %95
 x12 | x12 | x12 | x12 | x12 | x12 | x12 | x12 | x12 | x12 | x12 | x12 | x12 | x12 | x12 | x12 | %111
 x12 | x12 | x12 | x12 | x12 | x12 | x12 | x12 | x12 | x12 | x12 | x12 | x12 | x12 | x12 | x12 | %127
 x12 | x12 | x12 | x12 | x12 | x12 | x12 | x12 | x12 | x12 | x12 | x12 | x12 | x12 | x12 | x12 | %143
 x12 | x12 | x12 | x12 | x12 | x8[K:bass] x4 | x12 | x[K:treble] x11 | x12 | x12 | x12 | x12 | %155
 x12 | x8 G4- | G2 B2 ^f8 | x12 | x12 | x12 | x12 | x12 | x12 | x12 | x12 | x12 | x12 | x12 | x12 | %170
 x12 | x12 | x12 | x12 | x12 | x12 | x12 | x12 | x12 | x12 | x12 | x12 | x2[K:bass] x10 | x12 | %184
[K:treble] x12 | x12 | x12 | x12 | x12 | x12 | x12 | x12 | x12 | x12 | x12 | x12 | x12 | x4 d8 | %198
 x12 | x12 | x12 | x27 | x12 |] %203
V:10
 x12 | x12 | x12 | x12 | x12 | x12 | x12 | x12 | x12 | x12 | x12 | x12 | x12 | x12 | x12 | x12 | %16
 x12 | x12 | x12 | x12 | x12 | x12 | x12 | x12 | x12 | x12 | x12 | x12 | x12 | x12 | x12 | x12 | %32
 x12 | x12 | x12 | x12 | x12 | x12 | x12 | x12 | x12 | x12 | x12 | x12 | x8[K:treble] x4 | x12 | %46
 x12 | x8[K:bass] x4 | x12 | x12 | x12 | x12 |[K:treble] x12 | x12 | x12 | x12 |[K:bass] x12 | %57
 x12 | x12 | x12 | x12 | x12 | x12 | x12 | x12 | x12 | x12 | x12 | x12 | x12 | x12 | x12 | x12 | %73
 x12 | x12 | x12 | x12 | x12 | x12 | x12 | x12 | x12 | x12 | x12 | x12 | x12 | x12 | x12 | x12 | %89
 x12 | x12 | x12 | x12 | x12 | x12 | x12 | x12 | x12 | x12 | x12 | x12 | x12 | x12 | x12 | x12 | %105
 x12 | x12 | x12 | x12 | x12 | x12 | x12 | x8[K:treble] x4 | x12 | x12 | x12 | x12 |[K:bass] x12 | %118
 x12 | x12 | x12 | x12 | x12 | x12 | x12 | x12 | x12 | x12 | x12 | x12 | x12 | x12 | x12 | x12 | %134
 x12 | x12 | x12 | x12 |[K:treble] x12 | x12 | x12 | x12 |[K:bass] x12 | x12 | x12 | x12 | x12 | %147
 x12 | x12 | x12 | x12 | x12 | x12 | x12 | x12 | x12 | x12 | x12 | x12 | x12 | x12 | x12 | x12 | %163
 x12 | x12 | x12 | x12 | x12 | x12 | x12 | x12 | x12 | x12 | x12 | x12 | x12 | x12 | x12 | x12 | %179
 x12 | x12 | x12 | x12 | x12 | x12 | x12 | x12 | x12 | x12 | x12 | x12 | x8!8vb(! x4 | x12 | %193
 x8!8vb)! x4 | [G,,,G,,]12 | x12 | [E,,,E,,E,]12 | [D,,,D,,D,]12 | x12 | x12 | [E,,,E,,]12 | x27 | %202
 x12 |] %203

